cartflows/admin-core/assets/images/plugins/suretriggers/trusted-brands/MailerLite_logo.svg

<svg width="96" height="24" viewBox="0 0 96 24" fill="none" xmlns="http://www.w3.org/2000/svg">
<g clip-path="url(#clip0_4393_128361)">
<path d="M12.5542 12.729C10.952 12.729 9.67901 13.36 8.77915 14.6002C8.16461 13.4253 6.93553 12.7072 5.59671 12.729C4.32373 12.6855 3.1166 13.2294 2.30453 14.2086V13.991C2.30453 13.36 1.77778 12.8378 1.14129 12.8378C0.504801 12.8378 0 13.36 0 13.991V22.7598C0.0219479 23.3908 0.570645 23.8913 1.20713 23.8478C1.79973 23.826 2.28258 23.3473 2.30453 22.7598V16.6891C2.83128 15.8405 3.6214 14.8831 5.04801 14.8831C6.40878 14.8831 6.93553 15.5359 6.93553 17.2331V22.7598C6.95748 23.3908 7.50617 23.8913 8.14266 23.8478C8.73525 23.826 9.21811 23.3473 9.24006 22.7598V16.6891C9.7668 15.8405 10.5569 14.8831 11.9835 14.8831C13.3443 14.8831 13.8711 15.5359 13.8711 17.2331V22.7598C13.893 23.3908 14.4417 23.8913 15.0782 23.8478C15.6708 23.826 16.1536 23.3473 16.1756 22.7598V16.8632C16.2195 14.8614 15.0782 12.729 12.5542 12.729Z" fill="#4B5563"/>
<path d="M23.6159 12.7305C22.3649 12.7305 21.1138 12.9916 19.9726 13.492C19.5556 13.6443 19.2922 14.036 19.2922 14.4712C19.2922 15.0151 19.7092 15.4503 20.2579 15.4721H20.2798C20.3896 15.4721 20.4993 15.4503 20.609 15.4286C21.465 15.1239 22.3649 14.9499 23.2867 14.9499C25.0645 14.9499 25.8107 15.6026 25.8326 17.2128H23.5501C20.4554 17.191 18.5898 18.4966 18.5898 20.716C18.5898 22.8701 20.3896 24.0015 22.1673 24.0015C23.5062 24.0451 24.8011 23.5881 25.8326 22.7395V22.7613C25.8546 23.3923 26.4033 23.8928 27.0398 23.8492C27.6324 23.8275 28.1152 23.3488 28.1372 22.7613V16.9734C28.1372 14.8628 26.7325 12.7305 23.6159 12.7305ZM22.8697 21.9345C21.5748 21.9345 20.8944 21.4558 20.8944 20.5201C20.8944 20.172 20.8944 19.1276 23.7915 19.1276H25.8326V20.5419C25.2181 21.1947 24.0988 21.9345 22.8697 21.9345Z" fill="#4B5563"/>
<path d="M32.5487 8.63672H32.6804C33.3827 8.63672 33.9534 9.20245 33.9534 9.89873V9.98577C33.9534 10.682 33.3827 11.2478 32.6804 11.2478H32.5487C31.8464 11.2478 31.2757 10.682 31.2757 9.98577V9.89873C31.2757 9.20245 31.8464 8.63672 32.5487 8.63672Z" fill="#4B5563"/>
<path d="M32.5926 12.8164C31.9561 12.8164 31.4513 13.3169 31.4513 13.9479V13.9696V22.7384C31.4732 23.3694 32.0219 23.8699 32.6584 23.8264C33.251 23.8046 33.7339 23.3259 33.7558 22.7384V13.9696C33.7558 13.3386 33.251 12.8164 32.5926 12.8164Z" fill="#4B5563"/>
<path d="M38.4527 8.3125C37.8162 8.3125 37.3114 8.81295 37.3114 9.44396V9.46572V22.7386C37.3333 23.3696 37.882 23.8701 38.5185 23.8266C39.1111 23.8048 39.594 23.3261 39.6159 22.7386V9.46572C39.6159 8.83471 39.1111 8.3125 38.4746 8.3125C38.4527 8.3125 38.4527 8.3125 38.4527 8.3125Z" fill="#4B5563"/>
<path d="M47.6049 12.7305C45.9588 12.7305 44.5981 13.3397 43.6763 14.4929C42.8861 15.4938 42.4472 16.8646 42.4472 18.366C42.4472 21.8909 44.5322 24.0015 48 24.0015C49.9095 24.0015 50.8532 23.5664 51.7311 23.0659C52.1042 22.8918 52.3457 22.5219 52.3896 22.1085C52.3896 21.5428 51.9287 21.0859 51.38 21.0859H51.358C51.2044 21.0859 51.0288 21.1076 50.8971 21.1947C50.0631 21.6298 49.1413 21.8257 48.2195 21.8039C46.2881 21.8039 45.1468 20.9118 44.8614 19.2146H51.5775C52.192 19.2364 52.7188 18.7577 52.7407 18.1484C52.7407 18.1267 52.7407 18.1049 52.7407 18.0614C52.7407 14.4059 50.085 12.7305 47.6049 12.7305ZM47.6049 14.7323C48.5706 14.7323 50.1948 15.2763 50.4143 17.2781H44.7956C45.0151 15.5156 46.3319 14.7323 47.6049 14.7323Z" fill="#4B5563"/>
<path d="M60.7517 12.7288H60.642C59.5446 12.7288 58.535 13.251 57.6132 14.2519V13.9908C57.6132 13.3598 57.0864 12.8376 56.4499 12.8376C55.8134 12.8376 55.2867 13.3598 55.3086 13.9908V22.7596C55.3306 23.3906 55.8793 23.8911 56.5158 23.8476C57.1084 23.8258 57.5912 23.3471 57.6132 22.7596V16.6019C58.3594 15.5357 59.4129 14.9482 60.5981 14.9482H60.7078C61.3224 14.9917 61.8272 14.5348 61.8711 13.9255C61.8711 13.9038 61.8711 13.882 61.8711 13.8602C61.893 13.251 61.3882 12.7288 60.7737 12.707C60.7737 12.7288 60.7517 12.7288 60.7517 12.7288Z" fill="#4B5563"/>
<path d="M92.7078 0H69.3553C67.5336 0 66.0631 1.45784 66.0631 3.26383V24L70.6063 19.5394H92.7298C94.5515 19.5394 96.022 18.0816 96.022 16.2756V3.26383C96 1.45784 94.5295 0 92.7078 0ZM73.0645 14.6219C73.0645 15.1006 72.6694 15.4923 72.1866 15.4923C71.7037 15.4923 71.3087 15.1006 71.3087 14.6219V5.37443C71.3087 4.89574 71.7037 4.50408 72.1866 4.50408C72.6694 4.50408 73.0645 4.89574 73.0645 5.37443V14.6219ZM77.1468 14.6219C77.1468 15.1006 76.7517 15.4923 76.2689 15.4923C75.786 15.4923 75.391 15.1006 75.391 14.6219V8.50771C75.391 8.02901 75.786 7.63735 76.2689 7.63735C76.7517 7.63735 77.1468 8.02901 77.1468 8.50771V14.6219ZM77.2565 5.72257C77.2565 6.24479 76.8395 6.65821 76.3128 6.65821H76.225C75.6982 6.65821 75.2812 6.24479 75.2812 5.72257V5.6573C75.2812 5.13509 75.6982 4.72167 76.225 4.72167H76.3128C76.8395 4.72167 77.2565 5.13509 77.2565 5.6573V5.72257ZM83.4458 15.2747C83.0508 15.4705 82.6118 15.5576 82.1509 15.5576C80.6365 15.5576 79.8244 14.8395 79.8244 13.4687V9.26927H79.0343C78.7709 9.26927 78.5514 9.07344 78.5514 8.81233V8.79057C78.5514 8.63826 78.6392 8.48595 78.7709 8.37715L80.7243 6.48413C80.834 6.37534 80.9657 6.31006 81.1194 6.2883C81.3827 6.2883 81.6242 6.50589 81.6242 6.767V6.78876V7.70263H83.0288C83.4678 7.70263 83.8189 8.05077 83.8189 8.48595C83.8189 8.92112 83.4678 9.26927 83.0288 9.26927H81.6242V13.3599C81.6242 13.9474 81.9314 13.9909 82.3484 13.9909C82.524 13.9909 82.6996 13.9692 82.8532 13.9257C82.963 13.8821 83.0947 13.8821 83.2044 13.8604C83.5995 13.8604 83.9287 14.1868 83.9506 14.6002C83.9067 14.883 83.7092 15.1659 83.4458 15.2747ZM88.8231 13.9257C89.4595 13.9474 90.096 13.7951 90.6667 13.5122C90.7764 13.447 90.9081 13.4252 91.0178 13.4252C91.4568 13.4252 91.808 13.7516 91.808 14.1868V14.2085C91.786 14.5131 91.6104 14.796 91.3251 14.9266C90.7106 15.2747 90.0521 15.5793 88.6914 15.5793C86.2332 15.5793 84.7408 14.078 84.7408 11.5757C84.7408 8.63826 86.7161 7.57208 88.3841 7.57208C90.8862 7.57208 92.0274 9.55213 92.0274 11.3799C92.0494 11.8368 91.6763 12.2285 91.2154 12.2502C91.1934 12.2502 91.1715 12.2502 91.1495 12.2502H86.5405C86.7819 13.3382 87.572 13.9257 88.8231 13.9257Z" fill="#4B5563"/>
<path d="M88.428 9.11767C87.4623 9.09591 86.6502 9.81395 86.5624 10.7713H90.3155C90.2058 9.81395 89.3937 9.09591 88.428 9.11767Z" fill="#4B5563"/>
</g>
<defs>
<clipPath id="clip0_4393_128361">
<rect width="96" height="24" fill="white"/>
</clipPath>
</defs>
</svg>

<svg width="96" height="24" fill="none" xmlns="http://www.w3.org/2000/svg"><g clip-path="url(#a)" fill="#4B5563"><path d="M12.554 12.729c-1.602 0-2.875.631-3.775 1.871a3.51 3.51 0 0 0-3.182-1.871 4.082 4.082 0 0 0-3.292 1.48v-.218c0-.631-.527-1.153-1.164-1.153C.505 12.838 0 13.36 0 13.99v8.769c.022.63.57 1.131 1.207 1.088a1.141 1.141 0 0 0 1.098-1.088v-6.07c.526-.85 1.316-1.807 2.743-1.807 1.36 0 1.888.653 1.888 2.35v5.527c.021.63.57 1.131 1.207 1.088A1.141 1.141 0 0 0 9.24 22.76v-6.07c.527-.85 1.317-1.807 2.743-1.807 1.361 0 1.888.653 1.888 2.35v5.527c.022.63.57 1.131 1.207 1.088a1.141 1.141 0 0 0 1.098-1.088v-5.897c.044-2.002-1.098-4.134-3.622-4.134ZM23.616 12.73a9.11 9.11 0 0 0-3.643.762c-.417.152-.68.544-.68.98 0 .543.416.978.965 1h.022c.11 0 .22-.022.329-.043a7.976 7.976 0 0 1 2.678-.48c1.777 0 2.524.654 2.546 2.264H23.55c-3.095-.022-4.96 1.284-4.96 3.503 0 2.154 1.8 3.285 3.577 3.285a5.485 5.485 0 0 0 3.666-1.262v.022c.022.631.57 1.132 1.207 1.088a1.141 1.141 0 0 0 1.097-1.088v-5.788c0-2.11-1.404-4.242-4.521-4.242Zm-.746 9.204c-1.295 0-1.976-.478-1.976-1.414 0-.348 0-1.392 2.898-1.392h2.04v1.414c-.614.653-1.733 1.392-2.962 1.392ZM32.549 8.637h.131c.703 0 1.273.565 1.273 1.262v.087c0 .696-.57 1.262-1.273 1.262h-.131a1.269 1.269 0 0 1-1.273-1.262v-.087c0-.697.57-1.262 1.273-1.262ZM32.593 12.816c-.637 0-1.142.5-1.142 1.132V22.738c.022.631.57 1.132 1.207 1.088a1.141 1.141 0 0 0 1.098-1.088V13.97c0-.631-.505-1.154-1.163-1.154ZM38.453 8.313c-.637 0-1.142.5-1.142 1.131v13.295c.022.63.571 1.131 1.208 1.088a1.141 1.141 0 0 0 1.097-1.088V9.466c0-.631-.505-1.153-1.141-1.153h-.022ZM47.605 12.73c-1.646 0-3.007.61-3.929 1.763-.79 1-1.229 2.372-1.229 3.873 0 3.525 2.085 5.636 5.553 5.636 1.91 0 2.853-.436 3.731-.936.373-.174.615-.544.659-.957 0-.566-.461-1.023-1.01-1.023h-.022c-.154 0-.33.022-.46.109a5.493 5.493 0 0 1-2.679.609c-1.93 0-3.072-.892-3.358-2.59h6.717a1.121 1.121 0 0 0 1.163-1.066v-.087c0-3.655-2.656-5.33-5.136-5.33Zm0 2.002c.966 0 2.59.544 2.81 2.546h-5.62c.22-1.762 1.537-2.546 2.81-2.546ZM60.752 12.729h-.11c-1.097 0-2.107.522-3.029 1.523v-.261c0-.631-.527-1.153-1.163-1.153-.637 0-1.163.522-1.141 1.153v8.769c.022.63.57 1.131 1.207 1.088a1.141 1.141 0 0 0 1.097-1.088v-6.158c.746-1.066 1.8-1.654 2.985-1.654h.11a1.085 1.085 0 0 0 1.163-1.023v-.065c.022-.609-.483-1.131-1.097-1.153 0 .022-.022.022-.022.022ZM92.708 0H69.355c-1.821 0-3.292 1.458-3.292 3.264V24l4.543-4.46H92.73c1.822 0 3.292-1.458 3.292-3.264V3.264A3.307 3.307 0 0 0 92.708 0ZM73.064 14.622c0 .479-.395.87-.877.87a.877.877 0 0 1-.878-.87V5.374c0-.478.395-.87.878-.87.482 0 .877.392.877.87v9.248Zm4.083 0c0 .479-.395.87-.878.87a.877.877 0 0 1-.878-.87V8.508c0-.479.395-.87.878-.87s.878.391.878.87v6.114Zm.11-8.9a.933.933 0 0 1-.944.936h-.088a.933.933 0 0 1-.944-.935v-.066c0-.522.417-.935.944-.935h.088c.526 0 .944.413.944.935v.066Zm6.189 9.553a2.89 2.89 0 0 1-1.295.283c-1.514 0-2.327-.719-2.327-2.09V9.27h-.79c-.263 0-.483-.196-.483-.457v-.021a.56.56 0 0 1 .22-.414l1.953-1.893a.683.683 0 0 1 .395-.196c.264 0 .505.218.505.479v.936h1.405a.783.783 0 1 1 0 1.566h-1.405v4.09c0 .588.307.632.724.632.176 0 .352-.022.505-.065.11-.044.242-.044.351-.066.396 0 .725.327.747.74-.044.283-.242.566-.505.675Zm5.377-1.35a3.877 3.877 0 0 0 1.844-.413.7.7 0 0 1 .35-.087c.44 0 .791.327.791.762v.022a.85.85 0 0 1-.483.718c-.614.348-1.273.652-2.634.652-2.458 0-3.95-1.501-3.95-4.003 0-2.938 1.975-4.004 3.643-4.004 2.502 0 3.643 1.98 3.643 3.808.022.457-.35.848-.812.87H86.54c.242 1.088 1.032 1.676 2.283 1.676Z"/><path d="M88.428 9.118a1.822 1.822 0 0 0-1.866 1.653h3.754a1.858 1.858 0 0 0-1.888-1.653Z"/></g><defs><clipPath id="a"><path fill="#fff" d="M0 0h96v24H0z"/></clipPath></defs></svg>
